src/icons/flame.svg

<svg width="16" height="16" viewBox="0 0 16 16" fill="none" xmlns="http://www.w3.org/2000/svg">
<path d="M9.13 15L8.6 14.23C8.889 13.8519 9.02116 13.3769 8.96901 12.9039C8.91686 12.4308 8.68442 11.9961 8.32 11.69C7.70744 11.1781 7.28768 10.4726 7.13 9.69C5.57 11.92 6.38 13.15 7.13 14.24L6.58 15C5.5356 14.8032 4.59772 14.2351 3.93965 13.4005C3.28158 12.566 2.94781 11.5215 3 10.46C3 10.46 2.79 8.3 5.28 6.19C5.28 6.19 8.1 3.58 7.12 1.65L7.83 1C8.91319 1.75952 9.74186 2.82836 10.2076 4.06664C10.6732 5.30491 10.7543 6.65492 10.44 7.94C10.6771 7.70862 10.8673 7.43357 11 7.13L11.87 7.06C11.94 7.18 13.71 9.99 12.76 12.36C12.4216 13.0668 11.9126 13.6782 11.2789 14.1391C10.6452 14.6 9.90666 14.8959 9.13 15ZM7.13 8.05L8 8.44C7.95362 8.89619 8.01243 9.35695 8.17192 9.78687C8.3314 10.2168 8.58732 10.6044 8.92 10.92C9.34863 11.2323 9.67328 11.6664 9.85165 12.1658C10.03 12.6653 10.0538 13.2068 9.92 13.72C10.3333 13.5752 10.7131 13.3482 11.0362 13.0526C11.3593 12.7569 11.6192 12.3989 11.8 12C12.1395 10.7826 11.9925 9.48096 11.39 8.37C11.2006 8.67719 10.9255 8.92228 10.5986 9.07509C10.2716 9.22789 9.90716 9.28174 9.55 9.23L9.2 8.55C9.63803 7.60276 9.78722 6.54744 9.62893 5.5159C9.47064 4.48435 9.0119 3.52232 8.31 2.75C8.17 4.87 6 6.83 5.93 6.94C3.86 8.7 4 10.33 4 10.4C3.96095 11.0176 4.08778 11.6344 4.36735 12.1865C4.64692 12.7387 5.06905 13.2059 5.59 13.54C5 12.14 5 10.46 7.16 8.05H7.13Z" fill="white"/>
</svg>

<svg width="16" height="16" xmlns="http://www.w3.org/2000/svg"><path d="M9.13 15l-.53-.77a1.85 1.85 0 0 0-.28-2.54 3.51 3.51 0 0 1-1.19-2c-1.56 2.23-.75 3.46 0 4.55l-.55.76A4.4 4.4 0 0 1 3 10.46S2.79 8.3 5.28 6.19c0 0 2.82-2.61 1.84-4.54L7.83 1a6.57 6.57 0 0 1 2.61 6.94 2.57 2.57 0 0 0 .56-.81l.87-.07c.07.12 1.84 2.93.89 5.3A4.72 4.72 0 0 1 9.13 15zm-2-6.95l.87.39a3 3 0 0 0 .92 2.48 2.64 2.64 0 0 1 1 2.8A3.241 3.241 0 0 0 11.8 12a4.87 4.87 0 0 0-.41-3.63 1.85 1.85 0 0 1-1.84.86l-.35-.68a5.31 5.31 0 0 0-.89-5.8C8.17 4.87 6 6.83 5.93 6.94 3.86 8.7 4 10.33 4 10.4a3.47 3.47 0 0 0 1.59 3.14C5 12.14 5 10.46 7.16 8.05h-.03z"/></svg>
